gama.ui.shared/icons_svg/light/generic/menu.open.preferences.svg

<svg height="25" viewBox="-639.06 -3655.84 25 25" width="25" xmlns="http://www.w3.org/2000/svg"><g fill="none"><path d="m-634.7201-3655.34h16.32c2.1208 0 3.84 1.7193 3.84 3.84v16.32c0 2.121-1.7192 3.84-3.84 3.84h-16.32c-2.1208 0-3.84-1.719-3.84-3.84v-16.32c0-2.1207 1.7192-3.84 3.84-3.84z" fill="#fff"/><path d="m-634.7201-3655.34h16.32c2.1208 0 3.84 1.7193 3.84 3.84v16.32c0 2.121-1.7192 3.84-3.84 3.84h-16.32c-2.1208 0-3.84-1.719-3.84-3.84v-16.32c0-2.1207 1.7192-3.84 3.84-3.84z" stroke="#000" stroke-linecap="round" stroke-linejoin="round" stroke-width=".25"/><path d="m-630.11565-3638.4643h-4c-.24885 0-.44445-.1957-.44445-.4447 0-.2487.1956-.4442.44445-.4442h4v-.8888c0-.489.4-.889.88889-.889h1.77776c.4889 0 .8889.4.8889.889v.8888h7.5556c.24885 0 .4444.1955.4444.4442 0 .249-.19555.4447-.4444.4447h-7.5556v.9153c0 .489-.4.889-.8889.889h-1.77776c-.48889 0-.88889-.4-.88889-.889zm5.33335-4.4447h-9.33335c-.24885 0-.44445-.1953-.44445-.4442 0-.2488.1956-.4445.44445-.4445h9.33335v-.8889c0-.4889.4-.8889.8889-.8889h1.77775c.48889 0 .88889.4.88889.8889v.8889h2.22226c.24885 0 .4444.1957.4444.4445 0 .2489-.19555.4442-.4444.4442h-2.22226v.9158c0 .4889-.4.8889-.88889.8889h-1.77775c-.4889 0-.8889-.4-.8889-.8889zm-8-4.4442h-1.33335c-.24885 0-.44445-.1958-.44445-.4445 0-.2489.1956-.4443.44445-.4443h1.33335v-.889c0-.489.4-.889.8889-.889h1.77775c.48889 0 .88889.4.88889.889v.889h10.22226c.24885 0 .4444.1954.4444.4443 0 .2487-.19555.4445-.4444.4445h-10.22226v.9155c0 .4887-.4.8887-.88889.8887h-1.77775c-.4889 0-.8889-.4-.8889-.8887zm.8889-1.7778v2.6933h1.77775v-2.6933zm8 4.4444v2.6934h1.77775v-2.6934zm-5.33336 4.4446v2.693h1.77776v-2.693z" fill="#5c76a1"/></g></svg>

<?xml version="1.0" encoding="UTF-8" standalone="no"?>
<!DOCTYPE svg PUBLIC "-//W3C//DTD SVG 1.1//EN" "http://www.w3.org/Graphics/SVG/1.1/DTD/svg11.dtd">
<svg version="1.1" xmlns="http://www.w3.org/2000/svg" xmlns:xl="http://www.w3.org/1999/xlink" xmlns:dc="http://purl.org/dc/elements/1.1/" viewBox="-639.0601 -3655.84 25 25" width="25" height="25">
  <defs/>
  <g id="SOURCES" stroke-dasharray="none" fill="none" stroke="none" fill-opacity="1" stroke-opacity="1">
    <title>SOURCES</title>
    <g id="SOURCES_Calque_2">
      <title>Calque 2</title>
      <g id="Graphic_9246">
        <path d="M -634.7201 -3655.34 L -618.4001 -3655.34 C -616.2793 -3655.34 -614.5601 -3653.6207 -614.5601 -3651.5 L -614.5601 -3635.18 C -614.5601 -3633.059 -616.2793 -3631.34 -618.4001 -3631.34 L -634.7201 -3631.34 C -636.8409 -3631.34 -638.5601 -3633.059 -638.5601 -3635.18 L -638.5601 -3651.5 C -638.5601 -3653.6207 -636.8409 -3655.34 -634.7201 -3655.34 Z" fill="white"/>
        <path d="M -634.7201 -3655.34 L -618.4001 -3655.34 C -616.2793 -3655.34 -614.5601 -3653.6207 -614.5601 -3651.5 L -614.5601 -3635.18 C -614.5601 -3633.059 -616.2793 -3631.34 -618.4001 -3631.34 L -634.7201 -3631.34 C -636.8409 -3631.34 -638.5601 -3633.059 -638.5601 -3635.18 L -638.5601 -3651.5 C -638.5601 -3653.6207 -636.8409 -3655.34 -634.7201 -3655.34 Z" stroke="black" stroke-linecap="round" stroke-linejoin="round" stroke-width=".25"/>
      </g>
      <g id="Group_9311">
        <title>slider-rectangle-h</title>
        <g id="Graphic_9312">
          <path d="M -630.11565 -3638.4643 L -634.11565 -3638.4643 C -634.3645 -3638.4643 -634.5601 -3638.66 -634.5601 -3638.909 C -634.5601 -3639.1577 -634.3645 -3639.3532 -634.11565 -3639.3532 L -630.11565 -3639.3532 L -630.11565 -3640.242 C -630.11565 -3640.731 -629.71565 -3641.131 -629.22676 -3641.131 L -627.449 -3641.131 C -626.9601 -3641.131 -626.5601 -3640.731 -626.5601 -3640.242 L -626.5601 -3639.3532 L -619.0045 -3639.3532 C -618.75565 -3639.3532 -618.5601 -3639.1577 -618.5601 -3638.909 C -618.5601 -3638.66 -618.75565 -3638.4643 -619.0045 -3638.4643 L -626.5601 -3638.4643 L -626.5601 -3637.549 C -626.5601 -3637.06 -626.9601 -3636.66 -627.449 -3636.66 L -629.22676 -3636.66 C -629.71565 -3636.66 -630.11565 -3637.06 -630.11565 -3637.549 Z M -624.7823 -3642.909 L -634.11565 -3642.909 C -634.3645 -3642.909 -634.5601 -3643.1043 -634.5601 -3643.3532 C -634.5601 -3643.602 -634.3645 -3643.7977 -634.11565 -3643.7977 L -624.7823 -3643.7977 L -624.7823 -3644.6866 C -624.7823 -3645.1755 -624.3823 -3645.5755 -623.8934 -3645.5755 L -622.11565 -3645.5755 C -621.62676 -3645.5755 -621.22676 -3645.1755 -621.22676 -3644.6866 L -621.22676 -3643.7977 L -619.0045 -3643.7977 C -618.75565 -3643.7977 -618.5601 -3643.602 -618.5601 -3643.3532 C -618.5601 -3643.1043 -618.75565 -3642.909 -619.0045 -3642.909 L -621.22676 -3642.909 L -621.22676 -3641.9932 C -621.22676 -3641.5043 -621.62676 -3641.1043 -622.11565 -3641.1043 L -623.8934 -3641.1043 C -624.3823 -3641.1043 -624.7823 -3641.5043 -624.7823 -3641.9932 L -624.7823 -3642.909 Z M -632.7823 -3647.3532 L -634.11565 -3647.3532 C -634.3645 -3647.3532 -634.5601 -3647.549 -634.5601 -3647.7977 C -634.5601 -3648.0466 -634.3645 -3648.242 -634.11565 -3648.242 L -632.7823 -3648.242 L -632.7823 -3649.131 C -632.7823 -3649.62 -632.3823 -3650.02 -631.8934 -3650.02 L -630.11565 -3650.02 C -629.62676 -3650.02 -629.22676 -3649.62 -629.22676 -3649.131 L -629.22676 -3648.242 L -619.0045 -3648.242 C -618.75565 -3648.242 -618.5601 -3648.0466 -618.5601 -3647.7977 C -618.5601 -3647.549 -618.75565 -3647.3532 -619.0045 -3647.3532 L -629.22676 -3647.3532 L -629.22676 -3646.4377 C -629.22676 -3645.949 -629.62676 -3645.549 -630.11565 -3645.549 L -631.8934 -3645.549 C -632.3823 -3645.549 -632.7823 -3645.949 -632.7823 -3646.4377 Z M -631.8934 -3649.131 L -631.8934 -3646.4377 L -630.11565 -3646.4377 L -630.11565 -3649.131 Z M -623.8934 -3644.6866 L -623.8934 -3641.9932 L -622.11565 -3641.9932 L -622.11565 -3644.6866 L -623.8934 -3644.6866 Z M -629.22676 -3640.242 L -629.22676 -3637.549 L -627.449 -3637.549 L -627.449 -3640.242 Z" fill="#5c76a1"/>
        </g>
      </g>
    </g>
  </g>
</svg>
